X: 1
T: the Moon and Seven Stars
R: jig
S: Fiddle Hell Online 2022-4-1 handout for 1 handout for Contra Dance Piano workshop [Sue Songer]
Z: 2022 John Chambers <jc:trillian.mit.edu>
M: 6/8
L: 1/8
K: D
A |\
"D"d2A AGF | "G"GAB "D"A2A | "G"Bcd efg |1,3 "A"fed cBA :|2,4 "A"Adc "D"d2 :|
|:\
"A"e2A ABA | efg "D"f3 | "A"efg "D"fed | "E"cdB "A"A2A |
"G"BGB "D"A2A | "G"BGB "D"A2A | "G"Bcd efg | "A"Adc "D"d2 :|
